src/assets/Icons/03.svg

<svg width="39" height="25" viewBox="0 0 39 25" fill="none" xmlns="http://www.w3.org/2000/svg">
<path d="M1.592 5.984L0.955743 5.69207L0.952953 5.69831L1.592 5.984ZM5.048 1.728L5.44775 2.30263L5.44942 2.30146L5.048 1.728ZM15.48 1.728L15.0746 2.29881L15.0841 2.30531L15.48 1.728ZM18.936 5.984L18.2969 6.2697L18.2998 6.27592L18.936 5.984ZM19 18.688L18.3582 18.4086L19 18.688ZM15.608 22.912L16.0021 23.4905L15.608 22.912ZM4.952 22.912L4.55792 23.4906L4.5618 23.4932L4.952 22.912ZM1.56 18.688L2.20183 18.4086L1.56 18.688ZM5.112 16.96L4.45478 17.201L4.45611 17.2046L5.112 16.96ZM7.128 19.84L6.70577 20.3984L6.71464 20.4049L7.128 19.84ZM13.432 19.84L13.852 20.4L13.8542 20.3984L13.432 19.84ZM15.448 16.96L16.1039 17.2046L16.1052 17.201L15.448 16.96ZM15.448 7.68L14.7908 7.92098L14.7921 7.92457L15.448 7.68ZM13.432 4.768L13.0032 5.32133L13.0098 5.32636L13.432 4.768ZM7.128 4.768L7.55018 5.32636L7.55018 5.32636L7.128 4.768ZM5.112 7.68L5.7679 7.92457L5.76921 7.92098L5.112 7.68ZM1.076 12.352C1.076 9.99689 1.46852 7.97534 2.23105 6.26969L0.952953 5.69831C0.0941451 7.61933 -0.324 9.84311 -0.324 12.352H1.076ZM2.22823 6.27592C3.0141 4.56312 4.08966 3.24739 5.44775 2.30263L4.64825 1.15337C3.06234 2.25661 1.8339 3.77821 0.955773 5.69208L2.22823 6.27592ZM5.44942 2.30146C6.81463 1.34582 8.41029 0.859998 10.264 0.859998V-0.540002C8.14971 -0.540002 6.26804 0.0195122 4.64658 1.15454L5.44942 2.30146ZM10.264 0.859998C12.1409 0.859998 13.7341 1.34673 15.0747 2.29873L15.8853 1.15727C14.2819 0.0186014 12.3978 -0.540002 10.264 -0.540002V0.859998ZM15.0841 2.30531C16.4609 3.24938 17.5337 4.56231 18.297 6.26969L19.575 5.69831C18.717 3.77902 17.4858 2.25461 15.8759 1.15069L15.0841 2.30531ZM18.2998 6.27592C19.0816 7.97988 19.484 9.99915 19.484 12.352H20.884C20.884 9.84085 20.4544 7.61479 19.5722 5.69208L18.2998 6.27592ZM19.484 12.352C19.484 14.6871 19.1017 16.7005 18.3582 18.4086L19.6418 18.9674C20.477 17.0488 20.884 14.8383 20.884 12.352H19.484ZM18.3582 18.4086C17.6155 20.1147 16.565 21.4132 15.2139 22.3335L16.0021 23.4905C17.595 22.4055 18.8058 20.888 19.6418 18.9674L18.3582 18.4086ZM15.2139 22.3335C13.8772 23.244 12.2391 23.716 10.264 23.716V25.116C12.4702 25.116 14.3948 24.5854 16.0021 23.4905L15.2139 22.3335ZM10.264 23.716C8.3351 23.716 6.70469 23.2457 5.3422 22.3308L4.5618 23.4932C6.18598 24.5837 8.0969 25.116 10.264 25.116V23.716ZM5.34608 22.3335C3.99504 21.4132 2.94446 20.1147 2.20183 18.4086L0.918171 18.9674C1.7542 20.888 2.96496 22.4055 4.55792 23.4905L5.34608 22.3335ZM2.20183 18.4086C1.45829 16.7005 1.076 14.6871 1.076 12.352H-0.324C-0.324 14.8383 0.0830388 17.0488 0.918171 18.9674L2.20183 18.4086ZM3.708 12.352C3.708 14.2018 3.94982 15.8238 4.45479 17.201L5.76921 16.719C5.33552 15.5362 5.108 14.0862 5.108 12.352H3.708ZM4.45611 17.2046C4.96144 18.5598 5.70335 19.6404 6.70582 20.3984L7.55018 19.2816C6.80332 18.7169 6.20123 17.8776 5.76789 16.7154L4.45611 17.2046ZM6.71464 20.4049C7.72371 21.1433 8.91834 21.5 10.264 21.5V20.1C9.17766 20.1 8.28162 19.8167 7.54136 19.2751L6.71464 20.4049ZM10.264 21.5C11.6459 21.5 12.8567 21.1464 13.852 20.4L13.012 19.28C12.3006 19.8136 11.3994 20.1 10.264 20.1V21.5ZM13.8542 20.3984C14.8567 19.6404 15.5986 18.5598 16.1039 17.2046L14.7921 16.7154C14.3588 17.8776 13.7567 18.7169 13.0098 19.2816L13.8542 20.3984ZM16.1052 17.201C16.6102 15.8238 16.852 14.2018 16.852 12.352H15.452C15.452 14.0862 15.2245 15.5362 14.7908 16.719L16.1052 17.201ZM16.852 12.352C16.852 10.4421 16.6112 8.79595 16.1039 7.43543L14.7921 7.92457C15.2235 9.08138 15.452 10.5499 15.452 12.352H16.852ZM16.1052 7.43902C15.6009 6.06355 14.8594 4.9697 13.8542 4.20964L13.0098 5.32636C13.7539 5.88896 14.3565 6.73644 14.7908 7.92098L16.1052 7.43902ZM13.8608 4.21471C12.8651 3.44305 11.6511 3.076 10.264 3.076V4.476C11.3942 4.476 12.2922 4.77028 13.0032 5.32129L13.8608 4.21471ZM10.264 3.076C8.91311 3.076 7.7153 3.44637 6.70582 4.20964L7.55018 5.32636C8.29003 4.76696 9.18289 4.476 10.264 4.476V3.076ZM6.70582 4.20964C5.70058 4.9697 4.95913 6.06355 4.45479 7.43902L5.76921 7.92098C6.20354 6.73645 6.80609 5.88896 7.55018 5.32636L6.70582 4.20964ZM4.45611 7.43543C3.9488 8.79595 3.708 10.4421 3.708 12.352H5.108C5.108 10.5499 5.33653 9.08138 5.76789 7.92457L4.45611 7.43543ZM38.0448 3.872L38.5188 4.38703L38.7448 4.17907V3.872H38.0448ZM29.5968 11.648L29.1944 12.2208L29.6559 12.545L30.0708 12.163L29.5968 11.648ZM26.9088 9.76L26.4354 9.24433L25.7944 9.83272L26.5064 10.3328L26.9088 9.76ZM35.1007 2.24L35.7604 2.47409L34.6274 1.72433L35.1007 2.24ZM34.3968 4.224V4.924H34.8911L35.0564 4.45809L34.3968 4.224ZM23.1968 4.224H22.4967V4.924H23.1968V4.224ZM23.1968 0.608V-0.092H22.4967V0.608H23.1968ZM38.0448 0.608H38.7448V-0.092H38.0448V0.608ZM26.9088 12.416H26.2087V13.116H26.9088V12.416ZM26.9088 9.76L26.475 9.21058L26.2087 9.42078V9.76H26.9088ZM28.5088 9.12L28.6202 9.81107L28.631 9.80932L28.6418 9.80725L28.5088 9.12ZM33.5327 9.44L33.3072 10.1027L33.5327 9.44ZM36.1888 10.944L35.732 11.4744L35.7398 11.4812L35.7479 11.4877L36.1888 10.944ZM38.0448 13.344L37.4104 13.64L37.413 13.6455L38.0448 13.344ZM37.5967 20.736L37.0062 20.3602L37.5967 20.736ZM34.5247 23.456L34.2158 22.8278L34.2117 22.8299L34.5247 23.456ZM26.0767 23.52L25.7593 24.1439L25.7658 24.1472L25.7724 24.1504L26.0767 23.52ZM23.1647 20.832L22.5645 21.1922L22.5693 21.2001L23.1647 20.832ZM22.1087 16.544V15.844H21.4088V16.544H22.1087ZM26.1408 16.544H26.8407V15.844H26.1408V16.544ZM27.2607 19.68L26.7658 20.175L26.7728 20.182L26.7801 20.1889L27.2607 19.68ZM33.3727 19.616L32.8778 19.121L33.3727 19.616ZM33.3727 13.6L32.8777 14.095L32.8846 14.1017L33.3727 13.6ZM37.5707 3.35697L29.1227 11.133L30.0708 12.163L38.5188 4.38703L37.5707 3.35697ZM29.9991 11.0752L27.3111 9.18718L26.5064 10.3328L29.1944 12.2208L29.9991 11.0752ZM27.3821 10.2757L35.5741 2.75567L34.6274 1.72433L26.4354 9.24433L27.3821 10.2757ZM34.4411 2.00591L33.7371 3.98991L35.0564 4.45809L35.7604 2.47409L34.4411 2.00591ZM34.3968 3.524H23.1968V4.924H34.3968V3.524ZM23.8967 4.224V0.608H22.4967V4.224H23.8967ZM23.1968 1.308H38.0448V-0.092H23.1968V1.308ZM37.3447 0.608V3.872H38.7448V0.608H37.3447ZM29.7568 11.716H26.9088V13.116H29.7568V11.716ZM27.6087 12.416V9.76H26.2087V12.416H27.6087ZM27.3425 10.3094C27.6304 10.0821 28.0426 9.90424 28.6202 9.81107L28.3973 8.42893C27.6523 8.5491 26.9977 8.79791 26.475 9.21058L27.3425 10.3094ZM28.6418 9.80725C29.2664 9.68634 29.8401 9.628 30.3647 9.628V8.228C29.7374 8.228 29.0737 8.29766 28.3757 8.43275L28.6418 9.80725ZM30.3647 9.628C31.401 9.628 32.3805 9.7872 33.3072 10.1027L33.7583 8.77734C32.6796 8.41013 31.5472 8.228 30.3647 8.228V9.628ZM33.3072 10.1027C34.2289 10.4164 35.0349 10.8742 35.732 11.4744L36.6455 10.4136C35.8066 9.69115 34.8419 9.14623 33.7583 8.77734L33.3072 10.1027ZM35.7479 11.4877C36.4513 12.058 37.0053 12.772 37.4104 13.64L38.6791 13.048C38.1882 11.996 37.5049 11.11 36.6296 10.4003L35.7479 11.4877ZM37.413 13.6455C37.8091 14.4754 38.0168 15.4468 38.0168 16.576H39.4168C39.4168 15.2732 39.1764 14.09 38.6765 13.0425L37.413 13.6455ZM38.0168 16.576C38.0168 18.0634 37.6711 19.3153 37.0062 20.3602L38.1873 21.1118C39.0157 19.81 39.4168 18.2886 39.4168 16.576H38.0168ZM37.0062 20.3602C36.3315 21.4204 35.4071 22.242 34.2158 22.8279L34.8337 24.0841C36.2451 23.39 37.3687 22.3983 38.1873 21.1118L37.0062 20.3602ZM34.2117 22.8299C33.0386 23.4165 31.7181 23.716 30.2368 23.716V25.116C31.9127 25.116 33.4509 24.7755 34.8378 24.0821L34.2117 22.8299ZM30.2368 23.716C28.7936 23.716 27.5128 23.436 26.3811 22.8896L25.7724 24.1504C27.1153 24.7987 28.6079 25.116 30.2368 25.116V23.716ZM26.3942 22.8961C25.2939 22.3363 24.4188 21.5294 23.7602 20.4639L22.5693 21.2001C23.3613 22.4813 24.4276 23.4664 25.7593 24.1439L26.3942 22.8961ZM23.765 20.4719C23.1398 19.4299 22.8088 18.1317 22.8088 16.544H21.4088C21.4088 18.3269 21.7817 19.8874 22.5645 21.1921L23.765 20.4719ZM22.1087 17.244H26.1408V15.844H22.1087V17.244ZM25.4408 16.544C25.4408 18.0205 25.8545 19.2637 26.7658 20.175L27.7557 19.185C27.1737 18.603 26.8407 17.7555 26.8407 16.544H25.4408ZM26.7801 20.1889C27.7023 21.0599 28.8997 21.468 30.3008 21.468V20.068C29.1844 20.068 28.3552 19.7508 27.7414 19.1711L26.7801 20.1889ZM30.3008 21.468C31.7307 21.468 32.9452 21.0335 33.8677 20.111L32.8778 19.121C32.2643 19.7345 31.4308 20.068 30.3008 20.068V21.468ZM33.8677 20.111C34.8078 19.1708 35.2568 17.9481 35.2568 16.512H33.8568C33.8568 17.6359 33.5163 18.4825 32.8778 19.121L33.8677 20.111ZM35.2568 16.512C35.2568 15.1635 34.7952 14.0074 33.8609 13.0983L32.8846 14.1017C33.5289 14.7286 33.8568 15.5139 33.8568 16.512H35.2568ZM33.8677 13.105C32.8977 12.135 31.4797 11.716 29.7568 11.716V13.116C31.2765 13.116 32.2691 13.4863 32.8778 14.095L33.8677 13.105Z" fill="#FD943C"/>
</svg>

<svg width="39" height="25" fill="none" xmlns="http://www.w3.org/2000/svg"><path d="m1.592 5.984-.636-.292-.003.006.639.286Zm3.456-4.256.4.575.001-.002-.401-.573Zm10.432 0-.405.57.01.007.395-.577Zm3.456 4.256-.64.286.004.006.636-.292ZM19 18.688l-.642-.28.642.28Zm-3.392 4.224.394.579-.394-.579Zm-10.656 0-.394.579.004.002.39-.581ZM1.56 18.688l.642-.28-.642.28Zm3.552-1.728-.657.241.001.004.656-.245Zm2.016 2.88-.422.558.009.007.413-.565Zm6.304 0 .42.56.002-.002-.422-.558Zm2.016-2.88.656.245.001-.004-.657-.241Zm0-9.28-.657.241.001.004.656-.245Zm-2.016-2.912-.429.553.007.005.422-.558Zm-6.304 0 .422.558-.422-.558ZM5.112 7.68l.656.245.001-.004-.657-.241Zm-4.036 4.672c0-2.355.393-4.377 1.155-6.082L.953 5.698C.094 7.62-.324 9.843-.324 12.352h1.4Zm1.152-6.076c.786-1.713 1.862-3.029 3.22-3.973l-.8-1.15C3.062 2.257 1.834 3.778.956 5.693l1.272.583ZM5.45 2.3C6.815 1.346 8.41.86 10.264.86v-1.4c-2.114 0-3.996.56-5.617 1.695L5.449 2.3ZM10.264.86c1.877 0 3.47.487 4.81 1.439l.811-1.142C14.282.02 12.398-.54 10.264-.54v1.4Zm4.82 1.445c1.377.944 2.45 2.257 3.213 3.965l1.278-.572c-.858-1.919-2.09-3.443-3.7-4.547l-.79 1.154Zm3.216 3.97c.782 1.705 1.184 3.724 1.184 6.077h1.4c0-2.511-.43-4.737-1.312-6.66l-1.272.584Zm1.184 6.077c0 2.335-.382 4.349-1.126 6.057l1.284.558c.835-1.918 1.242-4.129 1.242-6.615h-1.4Zm-1.126 6.057c-.742 1.706-1.793 3.004-3.144 3.925l.788 1.157c1.593-1.085 2.804-2.603 3.64-4.524l-1.284-.558Zm-3.144 3.925c-1.337.91-2.975 1.382-4.95 1.382v1.4c2.206 0 4.13-.53 5.738-1.625l-.788-1.157Zm-4.95 1.382c-1.929 0-3.56-.47-4.922-1.385l-.78 1.162c1.624 1.09 3.535 1.623 5.702 1.623v-1.4Zm-4.918-1.383c-1.351-.92-2.402-2.218-3.144-3.924l-1.284.558c.836 1.921 2.047 3.439 3.64 4.524l.788-1.157ZM2.202 18.41c-.744-1.708-1.126-3.722-1.126-6.057h-1.4c0 2.486.407 4.697 1.242 6.615l1.284-.558Zm1.506-6.057c0 1.85.242 3.472.747 4.849l1.314-.482c-.433-1.183-.661-2.633-.661-4.367h-1.4Zm.748 4.853c.505 1.355 1.247 2.435 2.25 3.193l.844-1.116c-.747-.565-1.349-1.404-1.782-2.567l-1.312.49Zm2.259 3.2c1.009.738 2.203 1.095 3.549 1.095v-1.4c-1.086 0-1.982-.283-2.723-.825l-.826 1.13Zm3.549 1.095c1.382 0 2.593-.354 3.588-1.1l-.84-1.12c-.711.534-1.613.82-2.748.82v1.4Zm3.59-1.102c1.003-.758 1.745-1.838 2.25-3.193l-1.312-.49c-.433 1.163-1.035 2.002-1.782 2.567l.844 1.116Zm2.251-3.197c.505-1.377.747-3 .747-4.849h-1.4c0 1.734-.227 3.184-.661 4.367l1.314.482Zm.747-4.849c0-1.91-.24-3.556-.748-4.917l-1.312.49c.431 1.156.66 2.625.66 4.427h1.4Zm-.747-4.913c-.504-1.375-1.246-2.47-2.25-3.23l-.845 1.117c.744.563 1.347 1.41 1.78 2.595l1.315-.482Zm-2.244-3.224c-.996-.772-2.21-1.139-3.597-1.139v1.4c1.13 0 2.028.294 2.74.845l.857-1.106Zm-3.597-1.139c-1.35 0-2.549.37-3.558 1.134l.844 1.116c.74-.559 1.633-.85 2.714-.85v-1.4ZM6.706 4.21C5.7 4.97 4.959 6.064 4.455 7.439l1.314.482c.435-1.185 1.037-2.032 1.781-2.595L6.706 4.21Zm-2.25 3.225c-.507 1.36-.748 3.007-.748 4.917h1.4c0-1.802.229-3.27.66-4.427l-1.312-.49Zm33.589-3.563.474.515.226-.208v-.307h-.7Zm-8.448 7.776-.403.573.462.324.415-.382-.474-.515ZM26.909 9.76l-.474-.516-.64.589.711.5.403-.573ZM35.1 2.24l.66.234-1.134-.75.474.516Zm-.704 1.984v.7h.494l.165-.466-.66-.234Zm-11.2 0h-.7v.7h.7v-.7Zm0-3.616v-.7h-.7v.7h.7Zm14.848 0h.7v-.7h-.7v.7ZM26.909 12.416h-.7v.7h.7v-.7Zm0-2.656-.434-.55-.266.21v.34h.7Zm1.6-.64.111.691.011-.002.01-.002-.132-.687Zm5.024.32-.226.663.226-.663Zm2.656 1.504-.457.53.008.007.008.007.44-.544Zm1.856 2.4-.635.296.003.005.632-.301Zm-.448 7.392-.59-.376.59.376Zm-3.072 2.72-.31-.628-.003.002.313.626Zm-8.448.064-.318.624.007.003.006.003.305-.63Zm-2.912-2.688-.6.36.004.008.596-.368Zm-1.056-4.288v-.7h-.7v.7h.7Zm4.032 0h.7v-.7h-.7v.7Zm1.12 3.136-.495.495.007.007.007.007.48-.509Zm6.112-.064-.495-.495.495.495Zm0-6.016-.495.495.007.007.488-.502ZM37.57 3.357l-8.448 7.776.948 1.03 8.448-7.776-.948-1.03Zm-7.572 7.718-2.688-1.888-.805 1.146 2.688 1.888.805-1.146Zm-2.617-.8 8.192-7.52-.947-1.03-8.192 7.52.947 1.03Zm7.06-8.27-.705 1.985 1.32.468.703-1.984-1.319-.468Zm-.045 1.519h-11.2v1.4h11.2v-1.4Zm-10.5.7V.608h-1.4v3.616h1.4Zm-.7-2.916h14.848v-1.4H23.197v1.4Zm14.148-.7v3.264h1.4V.608h-1.4Zm-7.588 11.108h-2.848v1.4h2.848v-1.4Zm-2.148.7V9.76h-1.4v2.656h1.4Zm-.267-2.107c.288-.227.7-.405 1.278-.498l-.223-1.382c-.745.12-1.4.369-1.922.782l.867 1.098Zm1.3-.502a9.099 9.099 0 0 1 1.723-.179v-1.4c-.628 0-1.291.07-1.99.205l.267 1.374Zm1.723-.179c1.036 0 2.015.16 2.942.475l.451-1.326a10.462 10.462 0 0 0-3.393-.549v1.4Zm2.942.475a7.253 7.253 0 0 1 2.425 1.371l.913-1.06a8.652 8.652 0 0 0-2.887-1.637l-.45 1.326Zm2.44 1.385a5.974 5.974 0 0 1 1.663 2.152l1.27-.592a7.373 7.373 0 0 0-2.05-2.648l-.882 1.088Zm1.666 2.158c.396.83.604 1.8.604 2.93h1.4c0-1.303-.24-2.486-.74-3.534l-1.264.604Zm.604 2.93c0 1.487-.346 2.74-1.01 3.784l1.18.752c.829-1.302 1.23-2.823 1.23-4.536h-1.4Zm-1.01 3.784c-.675 1.06-1.6 1.882-2.791 2.468l.618 1.256c1.411-.694 2.535-1.686 3.353-2.972l-1.18-.752Zm-2.795 2.47c-1.173.587-2.494.886-3.975.886v1.4c1.676 0 3.214-.34 4.6-1.034l-.625-1.252Zm-3.975.886c-1.443 0-2.724-.28-3.856-.826l-.609 1.26c1.343.649 2.836.966 4.465.966v-1.4Zm-3.843-.82a6.51 6.51 0 0 1-2.634-2.432l-1.19.736a7.909 7.909 0 0 0 3.19 2.944l.634-1.248Zm-2.629-2.424c-.625-1.042-.956-2.34-.956-3.928h-1.4c0 1.783.373 3.343 1.155 4.648l1.201-.72Zm-1.656-3.228h4.032v-1.4h-4.032v1.4Zm3.332-.7c0 1.476.414 2.72 1.325 3.631l.99-.99c-.582-.582-.915-1.43-.915-2.641h-1.4Zm1.34 3.645c.921.87 2.119 1.279 3.52 1.279v-1.4c-1.117 0-1.946-.317-2.56-.897l-.96 1.018Zm3.52 1.279c1.43 0 2.644-.434 3.567-1.357l-.99-.99c-.614.614-1.447.947-2.577.947v1.4Zm3.567-1.357c.94-.94 1.389-2.163 1.389-3.599h-1.4c0 1.124-.34 1.97-.98 2.609l.99.99Zm1.389-3.599c0-1.348-.462-2.505-1.396-3.414l-.976 1.004c.644.627.972 1.412.972 2.41h1.4Zm-1.39-3.407c-.97-.97-2.387-1.389-4.11-1.389v1.4c1.52 0 2.512.37 3.12.979l.99-.99Z" fill="#FD943C"/></svg>
